Sources/FrostedUI/Resources/Icons.xcassets/trashSolid12.imageset/trash-solid-12.svg

<svg
  width="12"
  height="12"
  viewBox="0 0 12 12"
  fill="none"
  xmlns="http://www.w3.org/2000/svg"
  data-fui-icon="true"
>
  <path
    d="M9.09857 10.0671L9.5 5.25H2.5L2.90143 10.0671C2.95714 10.7357 3.51606 11.25 4.18697 11.25H7.81303C8.48394 11.25 9.04286 10.7357 9.09857 10.0671Z"
    fill="currentColor"
    stroke="currentColor"
    stroke-width="1.5"
    stroke-linecap="round"
    stroke-linejoin="round"
  />
  <path
    d="M3.75 3.25L4.2862 1.46265C4.4131 1.03967 4.80242.75 5.24403.75H6.75597C7.19758.75 7.5869 1.03967 7.7138 1.46265L8.25 3.25M.75 3.25H11.25"
    stroke="currentColor"
    stroke-width="1.5"
    stroke-linecap="round"
    stroke-linejoin="round"
  />
</svg>

<svg xmlns="http://www.w3.org/2000/svg" width="12" height="12" fill="none" data-fui-icon="true" viewBox="0 0 12 12"><path fill="currentColor" stroke="currentColor" stroke-linecap="round" stroke-linejoin="round" stroke-width="1.5" d="M9.099 10.067 9.5 5.25h-7l.401 4.817a1.29 1.29 0 0 0 1.286 1.183h3.626c.67 0 1.23-.514 1.286-1.183"/><path stroke="currentColor" stroke-linecap="round" stroke-linejoin="round" stroke-width="1.5" d="m3.75 3.25.536-1.787A1 1 0 0 1 5.244.75h1.512a1 1 0 0 1 .958.713L8.25 3.25m-7.5 0h10.5"/></svg>
